packages/core/src/svgs/sis.svg

<svg width="24" height="24" viewBox="0 0 24 24" fill="none" xmlns="http://www.w3.org/2000/svg">
<g clip-path="url(#clip0_31_18828)">
<path d="M0 0H24V24H0V0Z" fill="url(#paint0_linear_31_18828)"/>
<path d="M9.96007 5.81592H9.63436L9.42864 6.06449V6.3945L9.35578 6.46307L9.0215 6.50592L8.20721 7.54735L8.25007 7.89021L8.15578 8.00592L8.16864 8.12164L7.71436 8.35735V10.3074L8.14293 10.5559L8.13864 10.7059L8.22436 10.7959L8.19007 11.1216L8.9915 12.1631L9.32578 12.2059L9.42864 12.2916V12.6216L9.63007 12.8702H9.63864H9.63436V12.9902L9.42864 13.2302V14.9402L9.29578 15.0002H7.36721L7.28578 14.9402V14.5974L7.02864 14.3574L7.03293 14.2588L7.28578 14.0231V12.4974L7.05864 12.2574L7.06293 12.1545L7.28578 11.9316V11.6016L7.03721 11.3574H6.7115L6.66864 11.3145L6.62578 10.9759L5.25864 10.0502L4.92864 10.0931L4.71436 10.3545L4.75721 10.6974L6.12864 11.6316L6.42864 11.6016V11.9316L6.70293 12.1802H6.72436V12.2402L6.42864 12.4802V14.0102L6.69864 14.2545V14.3574H6.69436L6.42864 14.5974V14.9402L6.69436 15.1716H7.02864L7.13578 15.2831V15.6259L7.36721 15.8574H9.29578L9.42864 15.6259V15.2831L9.54436 15.1716H9.97721L10.2858 14.9402V13.2302L9.97721 12.9902L9.97293 12.8616L10.2858 12.6216V12.2916L9.96436 12.0002H9.63436L9.5915 11.9359L9.63007 11.6531L8.81578 10.6074L8.4815 10.5645V10.5602L8.5715 10.3202V8.37878L8.50293 8.13449V8.11307L8.51578 8.10021L8.85007 8.06164L9.6515 7.01592L9.60864 6.68164L9.6515 6.63878H9.97293L10.2858 6.39021V6.06449L10.3201 6.00021H13.6886L13.7144 6.06449V6.39021L14.0358 6.63878H14.3615L14.3958 6.68164L14.3572 7.01592L15.1586 8.06164L15.4929 8.10449L15.5058 8.11307V8.13449L15.4286 8.37878V10.3202L15.5272 10.5602V10.5688L15.1929 10.6074L14.3786 11.6531L14.4215 11.9916L14.3572 12.0002H14.0229L13.7144 12.2916V12.6216L14.0229 12.8702H14.0272L14.0229 12.9902L13.7144 13.2302V14.9402L14.0229 15.1716H14.3572L14.5715 15.2831V15.6259L14.8072 15.8574H16.6501L16.8772 15.6259V15.2831L16.9844 15.1716H17.3186L17.5715 14.9402V14.5974L17.3186 14.3574V14.2545L17.5715 14.0102V12.4802L17.2886 12.2402V12.1802H17.3101L17.5715 11.9316V11.6016L17.8886 11.6316L19.2472 10.6931L19.2858 10.3545L19.0801 10.0974L18.7501 10.0545L17.3915 10.9759L17.3486 11.3188L17.3058 11.3574H16.9758L16.7144 11.6016V11.9316L16.9501 12.1545L16.9586 12.2574L16.7144 12.4974V14.0231L16.9801 14.2588L16.9844 14.3574L16.7144 14.5974V14.9402L16.6458 15.0002H14.7044L14.5715 14.9402V13.2302L14.3658 12.9902V12.8702L14.3615 12.8659L14.6015 12.6216V12.2916H14.6101L14.6829 12.2059L15.0172 12.1631L15.8186 11.1216L15.7844 10.7959L15.8701 10.7102L15.8658 10.5559L16.2858 10.3074V8.35735L15.8401 8.12164L15.8529 8.00592L15.7586 7.89021L15.8015 7.54735L14.9872 6.50592L14.6529 6.46307L14.5715 6.3945V6.06449L14.3701 5.81592H14.0486L13.9415 5.73021V5.38735L13.6844 5.14307H10.3201L10.0629 5.38735V5.73021L9.96007 5.81592ZM11.3144 10.7145H10.9586L10.7144 10.9502V11.7645L10.9586 12.0002H11.3144L11.5715 11.7645V10.9502L11.3144 10.7145ZM13.0415 10.7145H12.6858L12.4286 10.9502V11.7645L12.6858 12.0002H13.0415L13.2858 11.7645V10.9502L13.0415 10.7145ZM11.5715 15.9945V15.6688L11.3358 15.4331L10.9929 15.4288L10.7144 15.6731V15.9945L10.6286 16.0888H10.3158L8.70436 17.6316V17.9016L8.59721 18.0002H6.90007L6.85293 17.9016V17.6316L6.5615 17.4002H6.22293L5.99578 17.6316V17.9659L6.22293 18.1931H6.56578L6.67293 18.3002V18.6302L6.90007 18.8574H8.59293L8.82864 18.6302V18.3002L8.93578 18.1931L9.27436 18.1974L10.8815 16.6545L10.8858 16.3288L10.9844 16.2216H11.3058L11.5629 15.9945H11.5715ZM12.4286 15.9945L12.6858 16.2259H13.0115L13.1101 16.3288V16.6502L14.7215 18.1974H15.0558L15.1629 18.3002V18.6302L15.4029 18.8574H17.0915L17.3229 18.6302V18.3002L17.4301 18.1931H17.7729L18.0001 17.9659V17.6316L17.7686 17.4002H17.4301L17.1429 17.6316V17.9016L17.0915 18.0002H15.4029L15.2958 17.9016V17.5716L13.6844 16.0888H13.3501L13.2858 15.9945V15.6602L13.0029 15.4288H12.6644L12.4286 15.6688V15.9945Z" fill="#00FE01"/>
</g>
<defs>
<linearGradient id="paint0_linear_31_18828" x1="4.46571" y1="4.16143" x2="29.2071" y2="32.58" gradientUnits="userSpaceOnUse">
<stop stop-color="#1A1E21"/>
<stop offset="1" stop-color="#06060A"/>
</linearGradient>
<clipPath id="clip0_31_18828">
<rect width="24" height="24" fill="white"/>
</clipPath>
</defs>
</svg>

<svg xmlns="http://www.w3.org/2000/svg" width="24" height="24" fill="none" viewBox="0 0 24 24"><g clip-path="url(#a)"><path fill="url(#b)" d="M0 0h24v24H0z"/><path fill="#00FE01" d="M9.96 5.816h-.326l-.205.248v.33l-.073.07-.335.042-.814 1.041.043.343-.094.116.013.116-.455.235v1.95l.429.249-.004.15.085.09-.034.326.802 1.041.334.043.103.086v.33l.201.248h.009-.005v.12l-.205.24v1.71l-.133.06H7.367l-.081-.06v-.343l-.257-.24.004-.098.253-.236v-1.526l-.227-.24.004-.102.223-.223v-.33l-.249-.245h-.325l-.043-.042-.043-.34-1.367-.925-.33.043-.215.261.043.343 1.372.935.3-.03v.33l.274.248h.021v.06l-.295.24v1.53l.27.245v.102h-.005l-.265.24v.343l.265.232h.335l.107.111v.343l.231.231h1.929l.133-.231v-.343l.115-.111h.433l.309-.232v-1.71l-.309-.24-.004-.128.313-.24v-.33L9.964 12h-.33l-.043-.064.04-.283-.815-1.046-.335-.042v-.005l.09-.24V8.38l-.068-.245v-.02l.013-.014.334-.038.802-1.046-.043-.334.043-.043h.32l.314-.249v-.326L10.32 6h3.369l.025.064v.326l.322.249h.325l.035.043-.039.334.802 1.046.334.042.013.01v.02l-.077.245v1.941l.098.24v.009l-.334.038-.814 1.046.043.339-.065.008h-.334l-.309.292v.33l.309.248h.004l-.004.12-.309.24v1.71l.309.232h.334l.215.111v.343l.235.231h1.843l.227-.231v-.343l.107-.111h.335l.253-.232v-.343l-.253-.24v-.102l.253-.245v-1.53l-.283-.24v-.06h.021l.262-.248v-.33l.317.03 1.358-.939.039-.338-.206-.258-.33-.042-1.358.92-.043.344-.043.038h-.33l-.262.245v.33l.236.223.009.102-.245.24v1.526l.266.236.004.098-.27.24v.343l-.068.06h-1.942l-.133-.06v-1.71l-.205-.24v-.12l-.005-.004.24-.244v-.33h.01l.072-.086.334-.043.802-1.041-.035-.326.086-.086-.004-.154.42-.249v-1.95l-.446-.235.013-.116-.094-.116.043-.343-.815-1.041-.334-.043-.082-.069v-.33l-.2-.248h-.322l-.107-.086v-.343l-.258-.244H10.32l-.257.244v.343zm1.354 4.898h-.355l-.245.236v.815l.245.235h.355l.258-.236v-.814zm1.727 0h-.355l-.257.236v.815l.257.235h.355l.245-.236v-.814zm-1.47 5.28v-.325l-.235-.236-.343-.004-.279.244v.322l-.085.094h-.313l-1.612 1.543v.27L8.597 18H6.9l-.047-.098v-.27L6.56 17.4h-.338l-.227.232v.334l.227.227h.343l.107.107v.33l.227.227h1.693l.236-.227v-.33l.107-.107.338.004 1.608-1.543.004-.325.098-.107h.322l.257-.228zm.858 0 .257.232h.325l.1.103v.321l1.61 1.547h.335l.107.103v.33l.24.227h1.688l.232-.227v-.33l.107-.107h.343l.227-.227v-.334l-.231-.232h-.339l-.287.232v.27L17.09 18h-1.688l-.107-.098v-.33l-1.612-1.483h-.334l-.064-.094v-.335l-.283-.231h-.339l-.235.24z"/></g><defs><linearGradient id="b" x1="4.466" x2="29.207" y1="4.161" y2="32.58" gradientUnits="userSpaceOnUse"><stop stop-color="#1A1E21"/><stop offset="1" stop-color="#06060A"/></linearGradient><clipPath id="a"><path fill="#fff" d="M0 0h24v24H0z"/></clipPath></defs></svg>
